images/image.svg

<?xml version="1.0" encoding="UTF-8" standalone="no"?>
<svg width="15px" height="14px" viewBox="0 0 15 14" version="1.1" xmlns="http://www.w3.org/2000/svg" xmlns:xlink="http://www.w3.org/1999/xlink">
    <!-- Generator: Sketch 40.3 (33839) - http://www.bohemiancoding.com/sketch -->
    <title>image</title>
    <desc>Created with Sketch.</desc>
    <defs></defs>
    <g id="Page-1" stroke="none" stroke-width="1" fill="none" fill-rule="evenodd">
        <g id="image" fill="#000000">
            <g id="Capa_1">
                <g id="Group">
                    <path d="M14.7413793,0 L0.25862069,0 C0.115862069,0 0,0.136043478 0,0.304347826 L0,13.6956522 C0,13.8639565 0.115862069,14 0.25862069,14 L14.7413793,14 C14.8841379,14 15,13.8639565 15,13.6956522 L15,0.304347826 C15,0.136043478 14.8841379,0 14.7413793,0 L14.7413793,0 Z M14.4827586,13.3913043 L0.517241379,13.3913043 L0.517241379,0.608695652 L14.4827586,0.608695652 L14.4827586,13.3913043 L14.4827586,13.3913043 Z" id="Shape"></path>
                    <path d="M4.13793103,6.73765217 C4.93215517,6.73765217 5.57818966,5.9773913 5.57818966,5.04304348 C5.57818966,4.10808696 4.93215517,3.34782609 4.13793103,3.34782609 C3.3437069,3.34782609 2.69767241,4.10808696 2.69767241,5.04273913 C2.69767241,5.9773913 3.3437069,6.73765217 4.13793103,6.73765217 L4.13793103,6.73765217 Z M4.13793103,3.95652174 C4.64689655,3.95652174 5.06094828,4.44408696 5.06094828,5.04273913 C5.06094828,5.6413913 4.64689655,6.12895652 4.13793103,6.12895652 C3.62896552,6.12895652 3.21491379,5.64169565 3.21491379,5.04304348 C3.21491379,4.4443913 3.62896552,3.95652174 4.13793103,3.95652174 L4.13793103,3.95652174 Z" id="Shape"></path>
                    <path d="M1.81034483,12.173913 C1.87086207,12.173913 1.93189655,12.1489565 1.98103448,12.0981304 L6.19991379,7.72708696 L8.86422414,10.8621739 C8.96534483,10.9811739 9.1287931,10.9811739 9.22991379,10.8621739 C9.33103448,10.7431739 9.33103448,10.5508261 9.22991379,10.4318261 L7.98672414,8.96882609 L10.3611207,5.90891304 L13.2734483,9.05069565 C13.3787069,9.16421739 13.5424138,9.15569565 13.6388793,9.03182609 C13.7353448,8.90795652 13.7283621,8.71530435 13.6228448,8.60178261 L10.5193966,5.25395652 C10.4687069,5.19947826 10.4012069,5.1723913 10.3331897,5.17421739 C10.2646552,5.17786957 10.2,5.21347826 10.1537069,5.27313043 L7.62077586,8.53786957 L6.39413793,7.09434783 C6.29741379,6.98082609 6.14275862,6.97504348 6.04034483,7.08095652 L1.63939655,11.641 C1.53206897,11.752087 1.52172414,11.9444348 1.61612069,12.0707391 C1.66732759,12.1392174 1.7387069,12.173913 1.81034483,12.173913 L1.81034483,12.173913 Z" id="Shape"></path>
                </g>
            </g>
        </g>
    </g>
</svg>

<svg width="15" height="14" xmlns="http://www.w3.org/2000/svg"><g fill="#000" fill-rule="evenodd"><path d="M14.741 0H.26C.116 0 0 .136 0 .304v13.392c0 .168.116.304.259.304H14.74c.143 0 .259-.136.259-.304V.304C15 .136 14.884 0 14.741 0zm-.258 13.391H.517V.61h13.966V13.39z"/><path d="M4.138 6.738c.794 0 1.44-.76 1.44-1.695s-.646-1.695-1.44-1.695c-.794 0-1.44.76-1.44 1.695 0 .934.646 1.695 1.44 1.695zm0-2.781c.509 0 .923.487.923 1.086 0 .598-.414 1.086-.923 1.086-.509 0-.923-.487-.923-1.086 0-.599.414-1.086.923-1.086zM1.81 12.174c.06 0 .122-.025.171-.076L6.2 7.728l2.664 3.134a.232.232 0 0 0 .366 0 .343.343 0 0 0 0-.43L7.987 8.969l2.374-3.06 2.912 3.142c.106.113.27.105.366-.02a.343.343 0 0 0-.016-.43l-3.104-3.347a.244.244 0 0 0-.186-.08.245.245 0 0 0-.18.1L7.622 8.537 6.394 7.094a.232.232 0 0 0-.354-.013l-4.4 4.56a.343.343 0 0 0-.024.43.243.243 0 0 0 .194.103z"/></g></svg>
